!!!!SEGMENT: pl-cz--i-8--009_danka--missa-es-dona-nobis.krn
!!!cenid: 18xx:729
!!!COM: Danka
!!!COM-rismid: pe30085946
!!!CDT: <1790->1810
!!!CNT:
!!!OPR: Missa Es
!!!OTL: Dona nobis
!!!OMV: 009
!!!PDT: 1800
!!!AGN: Sacred; Mass
!!!SMS-siglum: PL-CZ
!!!SMS-shelfmark: I-8
!!!SMS-shelfwork: 001-009 M
!!!SMS-variant:
!!!SMS-altvar:
!!!NIFC-rismid: 300000103
!!!URL-scan: http://repozytorium.nifc.pl/skany/pl-cz-nut--i-8
!!!ONB-nifc: UWAGA: części Mszy: Kyrie, Gloria, Credo, Et incarnatus, Et resurrexit, Sanctus, Benedictus,
!!!AIN: 1 alto 1 bass 2 clara 2 cor 1 fagot 1 flt 1 organ 1 soprn 1 tenor 2 violn
!!!key: E-
**kern	**fba	**dynam	**kern	**kern	**dynam	**kern	**text	**kern	**text	**kern	**text	**kern	**text	**kern	**dynam	**kern	**dynam	**kern	**dynam	**kern	**dynam	**kern	**dynam	**kern
*	*	*	*group4	*group4	*	*group3	*	*group3	*	*group3	*	*group3	*	*group2	*	*group2	*	*group1	*	*group1	*	*group1	*	*group1
*part13	*part13	*part13	*part12	*part11	*part11	*part10	*part10	*part9	*part9	*part8	*part8	*part7	*part7	*part6	*part6	*part5	*part5	*part4	*part4	*part3	*part3	*part2	*part2	*part1
*staff13	*staff13	*staff13	*staff12	*staff11	*staff11	*staff10	*staff10	*staff9	*staff9	*staff8	*staff8	*staff7	*staff7	*staff6	*staff6	*staff5	*staff5	*staff4	*staff4	*staff3	*staff3	*staff2	*staff2	*staff1
*I"Organo	*	*	*I"Violino IIdo	*I"Violino Primo.	*	*I"Baſso.	*	*I"Tenore	*	*I"Alto	*	*I"Canto.	*	*I"Cornu Secondo in Es.	*	*I"Cornu Primo in Es.	*	*I"Fagotto Obligato.	*	*I"Clarinetto. IIdo in Es.	*	*I"Clarinetto Primo. in Dis	*	*I"Flauto Solo
*I'org	*	*	*I'vl 2	*I'vl 1	*	*I'B	*	*I'T	*	*I'A	*	*I'S	*	*I'cor 2 in E|b	*	*I'cor 1 in E|b	*	*I'fag	*	*I'cl 2	*	*I'cl 1	*	*I'fl
*Iorgan	*	*	*Ivioln	*Ivioln	*	*Ibass	*	*Itenor	*	*Ialto	*	*Isoprn	*	*Icor	*	*Icor	*	*Ifagot	*	*Iclara	*	*Iclara	*	*Iflt
*ICklav	*	*	*ICstr	*ICstr	*	*ICvox	*	*ICvox	*	*ICvox	*	*ICvox	*	*ICbras	*	*ICbras	*	*ICww	*	*ICww	*	*ICww	*	*ICww
*IGcont	*	*	*IGacmp	*IGacmp	*	*IGcoro	*	*IGcoro	*	*IGcoro	*	*IGcoro	*	*IGacmp	*	*IGacmp	*	*IGacmp	*	*IGacmp	*	*IGacmp	*	*IGacmp
*clefF4	*	*	*clefG2	*clefG2	*	*clefF4	*	*clefC4	*	*clefC3	*	*clefC1	*	*clefG2	*	*clefG2	*	*clefF4	*	*clefG2	*	*clefG2	*	*
*	*	*	*	*	*	*	*	*	*	*	*	*	*	*ITrd-2c-3	*	*ITrd-2c-3	*	*	*	*ITrd1c2	*	*ITrd1c2	*	*
*k[b-e-a-]	*	*	*k[b-e-a-]	*k[b-e-a-]	*	*k[b-e-a-]	*	*k[b-e-a-]	*	*k[b-e-a-]	*	*k[b-e-a-]	*	*k[b-e-a-]	*	*k[b-e-a-]	*	*k[b-e-a-]	*	*k[b-e-a-]	*	*k[b-e-a-]	*	*
*E-:	*	*	*E-:	*E-:	*	*E-:	*	*E-:	*	*E-:	*	*E-:	*	*	*	*	*	*E-:	*	*E-:	*	*E-:	*	*
*M2/4	*	*	*M2/4	*M2/4	*	*M2/4	*	*M2/4	*	*M2/4	*	*M2/4	*	*M2/4	*	*M2/4	*	*M2/4	*	*M2/4	*	*M2/4	*	*
*all\right	*	*	*all\right	*all\right	*	*all\right	*	*all\right	*	*all\right	*	*all\right	*	*all\right	*	*all\right	*	*all\right	*	*all\right	*	*all\right	*	*
=1	=1	=1	=1	=1	=1	=1	=1	=1	=1	=1	=1	=1	=1	=1	=1	=1	=1	=1	=1	=1	=1	=1	=1	=1
!LO:TX:t=P:problem=kolejność znaków BB- E- A-	!	!	!	!	!	!	!	!	!	!	!	!	!	!	!	!	!	!LO:TX:t=P:problem=kolejność znaków BB- E- A-	!	!	!	!	!	!
!LO:TX:a:t=tutti:color=red	!	!	!	!	!	!	!	!	!	!	!	!	!	!	!	!	!	!	!	!	!	!	!	!
!LO:TX:a:B:t=Allo	!	!	!LO:TX:a:B:t=Allo	!LO:TX:a:B:t=Allo	!	!LO:TX:a:B:t=Allo	!	!LO:TX:a:B:t=Allo	!	!LO:TX:a:B:t=Allo	!	!LO:TX:a:B:t=Allo	!	!LO:TX:a:B:t=Allo	!	!LO:TX:a:B:t=Allo	!	!LO:TX:a:B:t=Allo	!LO:DY:t=forte:color=red	!LO:TX:a:B:t=Allo	!LO:DY:t=forte:color=red	!LO:TX:a:B:t=Allo	!	!LO:TX:t=P:problem=zgodnie z RISM "partia fl zaginęła"
8E-\L	.	.	8ggL 8b- 8e-\	8ggL 8b- 8e-|\	.	4e-\	Do-	4B-\	Do-	4g\	Do-	4ee-\	Do-	4ee-\	.	4gg\	.	8E-\L	f	4b-\	f	4gg\	.	2ryy
8e-\	.	.	(32gg\LL	(32gg\LL	.	.	.	.	.	.	.	.	.	.	.	.	.	8e-\	.	.	.	.	.	.
.	.	.	32ff\	32ff\	.	.	.	.	.	.	.	.	.	.	.	.	.	.	.	.	.	.	.	.
.	.	.	32gg\	32gg\	.	.	.	.	.	.	.	.	.	.	.	.	.	.	.	.	.	.	.	.
.	.	.	32aa-\JJJ)	32aa-\JJJ)	.	.	.	.	.	.	.	.	.	.	.	.	.	.	.	.	.	.	.	.
8d\	6_	.	16bb-\LL	16bb-\LL	.	4d\	-na	4B-\	-na	4a-\	-na	4ff\	-na	4b-/	.	4ff\	.	8d\	.	4b-\	.	4ff\	.	.
.	.	.	16aa-\	16aa-\	.	.	.	.	.	.	.	.	.	.	.	.	.	.	.	.	.	.	.	.
8d\J	.	.	16gg\	16gg\	.	.	.	.	.	.	.	.	.	.	.	.	.	8d\J	.	.	.	.	.	.
.	.	.	16ff\JJ	16ff\JJ	.	.	.	.	.	.	.	.	.	.	.	.	.	.	.	.	.	.	.	.
=2	=2	=2	=2	=2	=2	=2	=2	=2	=2	=2	=2	=2	=2	=2	=2	=2	=2	=2	=2	=2	=2	=2	=2	=2
8c\L	x	.	16ff\LL	16ff\LL	.	8.c\	do-	8.c\	do-	8.g\	Do-	8.ee-\	Do-	4ee-\	.	4gg\	.	8c\L	.	4g/	.	4ee-\	.	2ryy
.	.	.	16ee-\	16ee-\	.	.	.	.	.	.	.	.	.	.	.	.	.	.	.	.	.	.	.	.
8c\	.	.	16dd\	16dd\	.	.	.	.	.	.	.	.	.	.	.	.	.	8c\	.	.	.	.	.	.
.	.	.	16ee-\JJ	16ee-\JJ	.	16c\	-na	16c\	-na	16g\	-na	16ee-\	-na	.	.	.	.	.	.	.	.	.	.	.
8G\	6	.	8ee-\L	16b-\LL	.	8G\	no-	8B-\	no-	8g\	no-	8ee-\	no-	4ee-\	.	4gg\	.	8G\	.	4g/	.	4ee-\	.	.
.	.	.	.	16ee-\	.	.	.	.	.	.	.	.	.	.	.	.	.	.	.	.	.	.	.	.
8G\J	.	.	8ee-\J	16gg\	.	8G\	-nis	8B-\	-bis	8g\	-bis	8ee-\	-bis	.	.	.	.	8G\J	.	.	.	.	.	.
.	.	.	.	16bb-\JJ	.	.	.	.	.	.	.	.	.	.	.	.	.	.	.	.	.	.	.	.
!	!	!	!	!LO:LB:g=original	!	!	!	!	!	!	!	!	!	!	!	!	!	!	!	!	!	!	!	!
=3	=3	=3	=3	=3	=3	=3	=3	=3	=3	=3	=3	=3	=3	=3	=3	=3	=3	=3	=3	=3	=3	=3	=3	=3
!LO:TX:t=P:problem=mixed beam	!	!	!	!	!	!	!	!	!	!	!	!	!	!	!	!	!	!LO:TX:t=P:problem=mixed beam	!	!	!	!	!	!
8A-\L	6	.	(8.cc/L	16aa-\LL	.	8A-\	do-	8c\	do-	8a-\	do-	8ff\	do-	4ff\	.	4aa-\	.	8A-\L	.	4a-/	.	4ff\	.	2ryy
.	.	.	.	16gg\	.	.	.	.	.	.	.	.	.	.	.	.	.	.	.	.	.	.	.	.
8A-\	.	.	.	16aa-\	.	8A-\	-na	8c\	-na	8a-\	-na	8ff\	-na	.	.	.	.	8A-\	.	.	.	.	.	.
.	.	.	16a-/Jk)	16ff\JJ	.	.	.	.	.	.	.	.	.	.	.	.	.	.	.	.	.	.	.	.
8B-\	4	.	(16a-/LL	16ff\LL	.	8B-\	pa-	8B-\	pa-	8g\	pa-	(8ee-\	pa-	8ee-\L	.	8gg\L	.	8B-\	.	8g/L	.	8ee-\L	.	.
.	.	.	16g/)	16ee-\	.	.	.	.	.	.	.	.	.	.	.	.	.	.	.	.	.	.	.	.
8BB-/J	3	.	(16g/	16ee-\	.	8BB-/	.	8B-\	.	8f\	.	8dd\)	.	8b-\J	.	8ff\J	.	8BB-/J	.	8f/J	.	8dd\J	.	.
.	.	.	16f/JJ)	16dd\JJ	.	.	.	.	.	.	.	.	.	.	.	.	.	.	.	.	.	.	.	.
!	!	!	!LO:LB:g=original	!	!	!	!	!LO:LB:g=original	!	!LO:LB:g=original	!	!LO:LB:g=original	!	!	!	!	!	!	!	!	!	!	!	!
=4	=4	=4	=4	=4	=4	=4	=4	=4	=4	=4	=4	=4	=4	=4	=4	=4	=4	=4	=4	=4	=4	=4	=4	=4
!	!	!	!	!	!	!	!	!	!	!	!	!	!	!LO:TX:a:i:t=Soli:color=red	!	!LO:TX:a:i:t=Soli:color=red	!	!LO:TX:a:i:t=Soli:color=red	!	!LO:TX:a:i:t=Soli:color=red	!	!LO:TX:a:i:t=Soli:color=red	!	!
4E-\	.	.	4g/	4ee-\	.	4E-\	-cem	4B-\	-cem	4g\	-cem	4ee-\	-cem	4g/	.	4ee-\	.	8E-\L	.	8g\L	.	8ee-\L	.	2ryy
.	.	.	.	.	.	.	.	.	.	.	.	.	.	.	.	.	.	8E-\	.	16ee-\L	.	(16gg\L	.	.
.	.	.	.	.	.	.	.	.	.	.	.	.	.	.	.	.	.	.	.	16ff\JJ	.	16aa-\JJ)	.	.
4r	.	.	4r	4r	.	4r	.	4r	.	4r	.	4r	.	4g/	.	4ee-\	.	8E-\	.	8gg\L	.	8bb-\L	.	.
.	.	.	.	.	.	.	.	.	.	.	.	.	.	.	.	.	.	8E-\J	.	8gg\J	.	8bb-\J	.	.
!LO:LB:g=original	!	!	!	!	!	!LO:LB:g=original	!	!	!	!	!	!	!	!	!	!	!	!LO:LB:g=original	!	!	!	!	!	!
=5	=5	=5	=5	=5	=5	=5	=5	=5	=5	=5	=5	=5	=5	=5	=5	=5	=5	=5	=5	=5	=5	=5	=5	=5
2r	.	.	2r	2r	.	1r	.	1r	.	1r	.	1r	.	4b-/	.	4ff\	.	8D\L	.	8ff\L	.	8.bb-\L	.	2ryy
.	.	.	.	.	.	.	.	.	.	.	.	.	.	.	.	.	.	8D\	.	(16gg\L	.	.	.	.
.	.	.	.	.	.	.	.	.	.	.	.	.	.	.	.	.	.	.	.	16ff\JJ)	.	16aa-\Jk	.	.
.	.	.	.	.	.	.	.	.	.	.	.	.	.	8ee-\L	.	8gg\L	.	8E-\	.	(16ff\LL	.	(16aa-\LL	.	.
.	.	.	.	.	.	.	.	.	.	.	.	.	.	.	.	.	.	.	.	16ee-\)	.	16gg\)	.	.
.	.	.	.	.	.	.	.	.	.	.	.	.	.	8ee-\J	.	8gg\J	.	8E-\J	.	(16dd\	.	(16ff\	.	.
.	.	.	.	.	.	.	.	.	.	.	.	.	.	.	.	.	.	.	.	16ee-\JJ)	.	16gg\JJ)	.	.
!	!	!	!	!	!	!	!	!	!	!	!	!	!	!	!	!	!	!	!	!LO:LB:g=original	!	!LO:LB:g=original	!	!
=6	=6	=6	=6	=6	=6	=6	=6	=6	=6	=6	=6	=6	=6	=6	=6	=6	=6	=6	=6	=6	=6	=6	=6	=6
!	!	!LO:DY:a:t=p&colon;:color=red	!	!	!	!	!	!	!	!	!	!	!	!	!	!	!	!LO:TX:t=P:problem=mixed beam	!	!	!	!	!	!
8r	.	p	8r	8r	.	.	.	.	.	.	.	.	.	8ff\L	.	8aa-\L	.	8A-\L	.	8cc\L	.	8aa-\L	.	2ryy
!LO:TX:t=P:problem=mixed beam	!	!	!	!	!LO:DY:a:t=p&colon;:color=red:rj	!	!	!	!	!	!	!	!	!	!	!	!	!	!	!	!	!	!	!
8A-\L	6	.	8f/L	8a-/L	p	.	.	.	.	.	.	.	.	8ff\	.	8aa-\	.	8A-\	.	16cc\L	.	16aa-\L	.	.
.	.	.	.	.	.	.	.	.	.	.	.	.	.	.	.	.	.	.	.	16a-\JJ	.	16ff\JJ	.	.
8B-\	4	.	8e-/	8g/	.	.	.	.	.	.	.	.	.	8ee-\	.	8gg\	.	8B-\	.	8g/L	.	8ee-\L	.	.
8BB-/J	3	.	8d/J	8f/J	.	.	.	.	.	.	.	.	.	8b-\J	.	8ff\J	.	8BB-/J	.	8f/J	.	8dd\J	.	.
!	!	!	!	!	!	!	!	!	!	!	!	!	!	!LO:LB:g=original	!	!	!	!	!	!	!	!	!	!
=7	=7	=7	=7	=7	=7	=7	=7	=7	=7	=7	=7	=7	=7	=7	=7	=7	=7	=7	=7	=7	=7	=7	=7	=7
!	!	!LO:DY:a:t=forte:color=red	!	!LO:TX:t=P:problem=mixed beam	!LO:DY:a:t=for&colon;:color=red	!	!	!	!	!	!	!	!	!	!LO:DY:a:t=forte:color=red	!	!LO:DY:a:t=forte:color=red	!	!	!	!LO:DY:a:t=forte:color=red	!	!LO:DY:a:color=red:t=f&colon;	!
8E-\L	.	f	8e-\L	8g/L	f	4e-\	Do-	4B-\	do-	4g\	do-	4ee-\	do-	4g/	f	4ee-\	f	8E-\L	.	4g/	f	4ee-\	f	2ryy
8e-\	.	.	(32gg\LL	(32gg\LL	.	.	.	.	.	.	.	.	.	.	.	.	.	8e-\	.	.	.	.	.	.
.	.	.	32ff\	32ff\	.	.	.	.	.	.	.	.	.	.	.	.	.	.	.	.	.	.	.	.
.	.	.	32gg\	32gg\	.	.	.	.	.	.	.	.	.	.	.	.	.	.	.	.	.	.	.	.
.	.	.	32aa-\JJJ)	32aa-\JJJ)	.	.	.	.	.	.	.	.	.	.	.	.	.	.	.	.	.	.	.	.
!	!	!	!	!LO:LB:g=original	!	!	!	!	!	!	!	!	!	!	!	!	!	!	!	!	!	!	!	!
8d\	6	.	16bb-\LL	16bb-\LL	.	4d\	-na	4B-\	-na	4a-\	-na	4ff\	-na	4b-/	.	4ff\	.	8d\	.	4b-\	.	4ff\	.	.
.	.	.	16aa-\	16aa-\	.	.	.	.	.	.	.	.	.	.	.	.	.	.	.	.	.	.	.	.
8d\J	.	.	16gg\	16gg\	.	.	.	.	.	.	.	.	.	.	.	.	.	8d\J	.	.	.	.	.	.
.	.	.	16ff\JJ	16ff\JJ	.	.	.	.	.	.	.	.	.	.	.	.	.	.	.	.	.	.	.	.
!	!	!	!	!	!	!	!	!	!	!	!	!	!	!	!	!LO:LB:g=original	!	!	!	!	!	!	!	!
=8	=8	=8	=8	=8	=8	=8	=8	=8	=8	=8	=8	=8	=8	=8	=8	=8	=8	=8	=8	=8	=8	=8	=8	=8
8c\L	.	.	16ff\LL	16ff\LL	.	8.c\	do-	8.c\	do-	8.g\	do-	8.ee-\	do-	4ee-\	.	4gg\	.	8c\L	.	4ee-\	.	4gg\	.	2ryy
.	.	.	16ee-\	16ee-\	.	.	.	.	.	.	.	.	.	.	.	.	.	.	.	.	.	.	.	.
8c\	.	.	16dd\	16dd\	.	.	.	.	.	.	.	.	.	.	.	.	.	8c\	.	.	.	.	.	.
.	.	.	16ee-\JJ	16ee-\JJ	.	16c\	-na	16c\	-na	16g\	-na	16ee-\	-na	.	.	.	.	.	.	.	.	.	.	.
8G\	6	.	8b-\L	16b-\LL	.	8G\	no-	8B-\	no-	8g\	no-	8ee-\	no-	4ee-\	.	4gg\	.	8G\	.	4ee-\	.	4gg\	.	.
.	.	.	.	16ee-\	.	.	.	.	.	.	.	.	.	.	.	.	.	.	.	.	.	.	.	.
8G\J	.	.	8b-\J	16gg\	.	8G\	-bis	8B-\	-bis	8g\	-bis	8ee-\	-bis	.	.	.	.	8G\J	.	.	.	.	.	.
.	.	.	.	16ee-\JJ	.	.	.	.	.	.	.	.	.	.	.	.	.	.	.	.	.	.	.	.
=9	=9	=9	=9	=9	=9	=9	=9	=9	=9	=9	=9	=9	=9	=9	=9	=9	=9	=9	=9	=9	=9	=9	=9	=9
8A-\L	6_	.	8cc\L	16een\LL	.	8A-\	do-	8c\	do-	8a-\	do-	8ff\	do-	4ff\	.	4aa-\	.	8A-\L	.	4ff\	.	4aa-\	.	2ryy
.	.	.	.	16ff\	.	.	.	.	.	.	.	.	.	.	.	.	.	.	.	.	.	.	.	.
8A-\	.	.	8cc\	16ee\	.	8A-\	-na	8c\	-na	8a-\	-na	8ff\	-na	.	.	.	.	8A-\	.	.	.	.	.	.
.	.	.	.	16ff\JJ	.	.	.	.	.	.	.	.	.	.	.	.	.	.	.	.	.	.	.	.
!	!	!	!	!	!	!	!	!LO:LB:g=original	!	!	!	!	!	!	!	!	!	!	!	!	!	!	!	!
8A-\	.	.	8cc\	16aa-\LL	.	8A-\	pa-	8c\	pa-	8a-\	pa-	8ff\	pa-	8ff\L	.	8aa-\L	.	8A-\	.	8ff\L	.	8aa-\L	.	.
.	.	.	.	16ff\	.	.	.	.	.	.	.	.	.	.	.	.	.	.	.	.	.	.	.	.
8An\J	5	.	8cc\J	16gg\	.	8An\	.	8c\	.	8g\	.	8ee-\	.	8ee-\J	.	8gg\J	.	8An\J	.	8ee-\J	.	8gg\J	.	.
.	.	.	.	16ee-X\JJ	.	.	.	.	.	.	.	.	.	.	.	.	.	.	.	.	.	.	.	.
!	!	!	!LO:LB:g=original	!	!	!	!	!	!	!LO:LB:g=original	!	!LO:LB:g=original	!	!	!	!	!	!LO:LB:g=original	!	!	!	!	!	!
=10	=10	=10	=10	=10	=10	=10	=10	=10	=10	=10	=10	=10	=10	=10	=10	=10	=10	=10	=10	=10	=10	=10	=10	=10
!LO:TX:t=P:problem=mixed beam	!	!	!	!	!	!	!	!	!	!	!	!	!	!	!	!	!	!LO:TX:t=P:problem=mixed beam	!	!	!	!	!	!
8B-\L	.	.	16g/LL	16ee-\LL	.	4B-\	-cem	4B-\	-cem	4f\	-cem	4dd\	-cem	4b-/	.	4ff\	.	8B-\L	.	4dd\	.	4ff\	.	2ryy
.	.	.	16f/J	16dd\J	.	.	.	.	.	.	.	.	.	.	.	.	.	.	.	.	.	.	.	.
8BB-/J	.	.	8f/J	8dd\J	.	.	.	.	.	.	.	.	.	.	.	.	.	8BB-/J	.	.	.	.	.	.
8r	.	.	(16d/LL	16dd\LL	.	8r	.	8r	.	8r	.	8r	.	8r	.	8r	.	8r	.	8r	.	8r	.	.
.	.	.	16f/)	16ff\	.	.	.	.	.	.	.	.	.	.	.	.	.	.	.	.	.	.	.	.
8D\	6 5	.	(16b-/	16bb-\	.	8D/	do-	[<8B-\	do-	(8a-\	do-	(8ff\	do-	8b-/	.	8ff\	.	8D\	.	8b-\	.	8aa-\	.	.
.	.	.	16a-/JJ)	16aa-\JJ	.	.	.	.	.	.	.	.	.	.	.	.	.	.	.	.	.	.	.	.
!LO:LB:g=original	!	!	!	!LO:LB:g=original	!	!LO:LB:g=original	!	!	!	!	!	!	!	!	!	!	!	!	!	!	!	!	!	!
=11	=11	=11	=11	=11	=11	=11	=11	=11	=11	=11	=11	=11	=11	=11	=11	=11	=11	=11	=11	=11	=11	=11	=11	=11
*	*	*	*	*	*	*	*	*	*	*	*	*	*	*	*	*	*	*	*	*2\right	*	*	*	*
8E-\L	.	.	(16g/LL	16gg\LL	.	8E-\L	-na	4B-\]	.	8g\L)	.	8ee-\L)	-o-	8ee-\L	.	8gg\L	.	8E-\L	.	2b-\	.	8gg\L	.	2ryy
.	.	.	16b-/)	16bb-\	.	.	.	.	.	.	.	.	.	.	.	.	.	.	.	.	.	.	.	.
8A-\	4 2	.	(16d/	16dd\	.	8A-\J	.	.	.	8f\J	.	8dd\J	.	8b-\	.	8ff\	.	8A-\	.	.	.	8ff\J	.	.
.	.	.	16f/JJ)	16ff\JJ	.	.	.	.	.	.	.	.	.	.	.	.	.	.	.	.	.	.	.	.
8G\	6	.	(16e-/LL	16ee-\LL	.	8G\L	.	4B-\	.	8g\L	.	8ee-\L	.	8ee-\	.	8gg\	.	8G\	.	.	.	8ee-\L	.	.
.	.	.	16g/)	16gg\	.	.	.	.	.	.	.	.	.	.	.	.	.	.	.	.	.	.	.	.
8D\J	6 5	.	(16f/	16ff\	.	8D\J	.	.	.	8a-\J	.	8ff\J	.	8ff\J	.	8aa-\J	.	8D\J	.	.	.	8aa-\J	.	.
.	.	.	16a-/JJ)	16aa-\JJ	.	.	.	.	.	.	.	.	.	.	.	.	.	.	.	.	.	.	.	.
!	!	!	!	!	!	!	!	!	!	!	!	!	!	!	!	!	!	!	!	!	!	!LO:LB:g=original	!	!
=12	=12	=12	=12	=12	=12	=12	=12	=12	=12	=12	=12	=12	=12	=12	=12	=12	=12	=12	=12	=12	=12	=12	=12	=12
8E-\L	.	.	(16g/LL	16gg\LL	.	8E-\L	no-	4B-\	-na	8g\L	-na	8ee-\L	-na	8ee-\L	.	8gg\L	.	8E-\L	.	2b-\	.	8gg\L	.	2ryy
.	.	.	16b-/)	16bb-\	.	.	.	.	.	.	.	.	.	.	.	.	.	.	.	.	.	.	.	.
8A-\	4 2	.	(16d/	16dd\	.	8A-\J	.	.	.	8f\J	.	8dd\J	.	8b-\	.	8ff\	.	8A-\	.	.	.	8ff\J	.	.
.	.	.	16f/JJ)	16ff\JJ	.	.	.	.	.	.	.	.	.	.	.	.	.	.	.	.	.	.	.	.
8G\	6	.	(16e-/LL	16ee-\LL	.	8G\L	-bis	4B-\	.	8g\L	.	8ee-\L	.	8ee-\	.	8gg\	.	8G\	.	.	.	8ee-\L	.	.
.	.	.	16g/)	16gg\	.	.	.	.	.	.	.	.	.	.	.	.	.	.	.	.	.	.	.	.
8D\J	6 5	.	(16f/	16ff\	.	8D\J	.	.	.	8a-\J	.	8ff\J	.	8ff\J	.	8aa-\J	.	8D\J	.	.	.	8aa-\J	.	.
.	.	.	16a-/JJ)	16aa-\JJ	.	.	.	.	.	.	.	.	.	.	.	.	.	.	.	.	.	.	.	.
!	!	!	!	!	!	!	!	!	!	!	!	!	!	!	!	!	!	!	!	!LO:LB:g=original	!	!	!	!
=13	=13	=13	=13	=13	=13	=13	=13	=13	=13	=13	=13	=13	=13	=13	=13	=13	=13	=13	=13	=13	=13	=13	=13	=13
8E-\L	.	.	16g/LL	16gg\LL	.	4E-\	do-	4B-\	no-	4g\	no-	4ee-\	no-	4ee-\	.	4gg\	.	8E-\L	.	4b-\	.	4gg\	.	2ryy
.	.	.	16b-/	16bb-\	.	.	.	.	.	.	.	.	.	.	.	.	.	.	.	.	.	.	.	.
8E-\	.	.	16a-/	16aa-\	.	.	.	.	.	.	.	.	.	.	.	.	.	8E-\J	.	.	.	.	.	.
.	.	.	16g/JJ	16gg\JJ	.	.	.	.	.	.	.	.	.	.	.	.	.	.	.	.	.	.	.	.
8G\	6	.	16f/LL	16ff\LL	.	4G\	-na	4B-\	-bis	4g\	-bis	4ee-\	-bis	4ee-\	.	4gg\	.	8G\L	.	4ee-\	.	4gg\	.	.
.	.	.	16e-/	16ee-\	.	.	.	.	.	.	.	.	.	.	.	.	.	.	.	.	.	.	.	.
8G\J	.	.	16d/	16dd\	.	.	.	.	.	.	.	.	.	.	.	.	.	8G\J	.	.	.	.	.	.
.	.	.	16e-/JJ	16ee-\JJ	.	.	.	.	.	.	.	.	.	.	.	.	.	.	.	.	.	.	.	.
!	!	!	!	!LO:LB:g=original	!	!	!	!LO:LB:g=original	!	!	!	!	!	!LO:LB:g=original	!	!	!	!	!	!	!	!	!	!
=14	=14	=14	=14	=14	=14	=14	=14	=14	=14	=14	=14	=14	=14	=14	=14	=14	=14	=14	=14	=14	=14	=14	=14	=14
!LO:TX:t=P:problem=mixed beam	!	!	!	!	!	!	!	!	!	!	!	!	!	!	!	!	!	!LO:TX:t=P:problem=mixed beam	!	!	!	!	!	!
8A-\L	6	.	8f/L	8ff\L	.	8A-\	no-	8c\	no-	8a-\	no-	8ff\	no-	4ff\	.	4aa-\	.	8A-\L	.	4ff\	.	4aa-\	.	2ryy
8A-\	.	.	8a-/	16aa-\L	.	8A-\	-bis	8c\	-bis	8a-\	-bis	8ff\	-bis	.	.	.	.	8A-\	.	.	.	.	.	.
.	.	.	.	16ff\JJ	.	.	.	.	.	.	.	.	.	.	.	.	.	.	.	.	.	.	.	.
!	!	!	!	!	!	!	!	!	!	!LO:LB:g=original	!	!LO:LB:g=original	!	!	!	!	!	!	!	!	!	!	!	!
8B-\	4	.	8g/	8ee-\L	.	8B-\	pa-	8B-\	pa-	8g\	pa-	(8ee-\	pa-	8ee-\L	.	8gg\L	.	8B-\	.	8ee-\L	.	8gg\L	.	.
8BB-/J	3	.	8f/J	8dd\J	.	8BB-/	.	8B-\	.	8f\	.	8dd\)	.	8b-\J	.	8ff\J	.	8BB-/J	.	8dd\J	.	8ff\J	.	.
!	!	!	!LO:LB:g=original	!	!	!	!	!	!	!	!	!	!	!	!	!LO:LB:g=original	!	!LO:LB:g=original	!	!	!	!	!	!
=15	=15	=15	=15	=15	=15	=15	=15	=15	=15	=15	=15	=15	=15	=15	=15	=15	=15	=15	=15	=15	=15	=15	=15	=15
!	!	!	!	!	!	!	!	!	!	!	!	!	!	!LO:TX:a:i:t=Soli:color=red:rj	!	!LO:TX:a:i:t=Soli:color=red	!	!LO:TX:a:i:t=Soli:color=red	!	!LO:TX:a:i:t=Soli:color=red:rj	!	!LO:TX:a:i:t=Soli:color=red:rj	!	!
4E-\	.	.	4g/	4ee-\	.	4E-\	-cem	4B-\	-cem	4g\	-cem	4ee-\	-cem	4g/	.	4ee-\	.	8E-\L	.	(8.ee-\L	.	(8.gg\L	.	2ryy
.	.	.	.	.	.	.	.	.	.	.	.	.	.	.	.	.	.	8E-\	.	.	.	.	.	.
.	.	.	.	.	.	.	.	.	.	.	.	.	.	.	.	.	.	.	.	16gg\Jk)	.	16bb-\Jk)	.	.
4r	.	.	4r	4r	.	4r	.	4r	.	4r	.	4r	.	4g/	.	4ee-\	.	8E-\	.	(8.g\L	.	(8.ee-\L	.	.
.	.	.	.	.	.	.	.	.	.	.	.	.	.	.	.	.	.	8E-\J	.	.	.	.	.	.
.	.	.	.	.	.	.	.	.	.	.	.	.	.	.	.	.	.	.	.	16ee-\Jk)	.	16gg\Jk)	.	.
=16	=16	=16	=16	=16	=16	=16	=16	=16	=16	=16	=16	=16	=16	=16	=16	=16	=16	=16	=16	=16	=16	=16	=16	=16
*	*	*	*	*	*	*	*	*	*	*	*	*	*	*	*	*	*	*tremolo	*	*	*	*	*	*
0r	.	.	0r	0r	.	0r	.	0r	.	0r	.	0r	.	4b-/	.	4ff\	.	8BB-/L	.	8dd|\L	.	8ff|\L	.	2ryy
.	.	.	.	.	.	.	.	.	.	.	.	.	.	.	.	.	.	8BB-/	.	(16dd\L	.	(16ff\L	.	.
.	.	.	.	.	.	.	.	.	.	.	.	.	.	.	.	.	.	.	.	16ff\JJ)	.	16aa-\JJ)	.	.
.	.	.	.	.	.	.	.	.	.	.	.	.	.	8ee-/L	.	8gg\L	.	8BB-/	.	8ee-|\L	.	8gg|\L	.	.
.	.	.	.	.	.	.	.	.	.	.	.	.	.	8b-/J	.	8ff\J	.	8BB-/J	.	8dd|\J	.	8ff|\J	.	.
!	!	!	!	!	!	!	!	!	!	!	!	!	!	!	!	!	!	!	!	!	!	!LO:LB:g=original	!	!
=17	=17	=17	=17	=17	=17	=17	=17	=17	=17	=17	=17	=17	=17	=17	=17	=17	=17	=17	=17	=17	=17	=17	=17	=17
*	*	*	*	*	*	*	*	*	*	*	*	*	*	*	*	*	*	*2\right	*	*	*	*	*	*
!	!	!	!	!	!	!	!	!	!	!	!	!	!	!	!	!	!	!LO:N:TREM:vis=2.	!	!	!	!	!	!
.	.	.	.	.	.	.	.	.	.	.	.	.	.	4g/	.	4ee-\	.	8E-\L	.	(8.ee-\L	.	(8.gg\L	.	2ryy
.	.	.	.	.	.	.	.	.	.	.	.	.	.	.	.	.	.	8E-\	.	.	.	.	.	.
.	.	.	.	.	.	.	.	.	.	.	.	.	.	.	.	.	.	.	.	16gg\Jk)	.	16bb-\Jk)	.	.
.	.	.	.	.	.	.	.	.	.	.	.	.	.	4g/	.	4ee-\	.	8E-\	.	8.g\L	.	(8.ee-\L	.	.
.	.	.	.	.	.	.	.	.	.	.	.	.	.	.	.	.	.	8E-\J	.	.	.	.	.	.
.	.	.	.	.	.	.	.	.	.	.	.	.	.	.	.	.	.	.	.	16ee-\Jk	.	16gg\Jk)	.	.
!	!	!	!	!	!	!	!	!	!	!	!	!	!	!	!	!	!	!	!	!LO:LB:g=original	!	!	!	!
=18	=18	=18	=18	=18	=18	=18	=18	=18	=18	=18	=18	=18	=18	=18	=18	=18	=18	=18	=18	=18	=18	=18	=18	=18
!	!	!	!	!	!	!	!	!	!	!	!	!	!	!	!	!	!	!LO:N:TREM:vis=2.	!	!	!	!	!	!
.	.	.	.	.	.	.	.	.	.	.	.	.	.	4b-/	.	4ff\	.	8BB-/L	.	8dd'\L	.	8ff|\L	.	2ryy
.	.	.	.	.	.	.	.	.	.	.	.	.	.	.	.	.	.	8BB-/	.	(16dd\L	.	(16ff\L	.	.
.	.	.	.	.	.	.	.	.	.	.	.	.	.	.	.	.	.	.	.	16ff\JJ)	.	16aa-\JJ)	.	.
.	.	.	.	.	.	.	.	.	.	.	.	.	.	8ee-/L	.	8gg\L	.	8BB-/	.	8ee-|\L	.	8gg|\L	.	.
.	.	.	.	.	.	.	.	.	.	.	.	.	.	8b-/J	.	8ff\J	.	8BB-/J	.	8dd|\J	.	8ff|\J	.	.
*	*	*	*	*	*	*	*	*	*	*	*	*	*	*	*	*	*	*Xtremolo	*	*	*	*	*	*
=19	=19	=19	=19	=19	=19	=19	=19	=19	=19	=19	=19	=19	=19	=19	=19	=19	=19	=19	=19	=19	=19	=19	=19	=19
!	!	!	!	!	!	!	!	!	!	!	!	!	!	!	!	!	!	!LO:TX:t=P:problem=mixed beam	!	!	!	!	!	!
.	.	.	.	.	.	.	.	.	.	.	.	.	.	4g/	.	4ee-\	.	8E-\L	.	8ee-|\L	.	8gg|\L	.	2ryy
.	.	.	.	.	.	.	.	.	.	.	.	.	.	.	.	.	.	8E-\	.	(32ee-\LL	.	(32gg\LL	.	.
.	.	.	.	.	.	.	.	.	.	.	.	.	.	.	.	.	.	.	.	32dd\	.	32ff\	.	.
.	.	.	.	.	.	.	.	.	.	.	.	.	.	.	.	.	.	.	.	32ee-\	.	32gg\	.	.
.	.	.	.	.	.	.	.	.	.	.	.	.	.	.	.	.	.	.	.	32ff\JJJ)	.	32aa-\JJJ)	.	.
.	.	.	.	.	.	.	.	.	.	.	.	.	.	8ee-/L	.	8gg\L	.	8B-\	.	8gg|\L	.	8bb-|\L	.	.
.	.	.	.	.	.	.	.	.	.	.	.	.	.	8b-/J	.	8ff\J	.	8BB-/J	.	8ff|\J	.	8aa-|\J	.	.
=20	=20	=20	=20	=20	=20	=20	=20	=20	=20	=20	=20	=20	=20	=20	=20	=20	=20	=20	=20	=20	=20	=20	=20	=20
8r	.	.	8r	8r	.	8r	.	8r	.	8r	.	8r	.	8g/L	.	8ee-\L	.	8E-\L	.	8ee-\L	.	8gg|\L	.	2ryy
!LO:TX:t=P:problem=mixed beam	!	!	!	!	!	!	!	!	!	!	!	!	!	!	!	!	!	!	!	!	!	!	!	!
8E-\L	.	.	8ee-L 8g\	8ggL 8b- 8e-\	.	8E-\	da	8B-\	pa-	8g\	pa-	8ee-\	pa-	8g/	.	8ee-\	.	8E-\	.	8ee-\J	.	8gg|\J	.	.
!	!	!	!	!	!	!LO:LB:g=original	!	!	!	!	!	!	!	!	!	!	!	!	!	!	!	!	!	!
8B-\	.	.	8dd 8f\	8ff 8b- 8d\	.	8B-\	pa-	8B-\	.	8f\	.	8dd\	.	8b-/	.	8ff\	.	8B-\	.	4dd\	.	4ff\	.	.
8BB-/J	.	.	8ddJ 8f\	8ffJ 8b- 8d\	.	8B-\	.	8B-\	.	8f\	.	8dd\	.	8b-/J	.	8ff\J	.	8B-\J	.	.	.	.	.	.
!LO:LB:g=original	!	!	!	!LO:LB:g=original	!	!	!	!LO:LB:g=original	!	!	!	!	!	!LO:LB:g=original	!	!	!	!	!	!	!	!LO:LB:g=original	!	!
=21	=21	=21	=21	=21	=21	=21	=21	=21	=21	=21	=21	=21	=21	=21	=21	=21	=21	=21	=21	=21	=21	=21	=21	=21
!	!	!	!	!	!	!	!	!	!	!	!	!	!	!	!	!	!	!LO:TX:t=P:problem=mixed beam	!	!	!	!	!	!
4E-\	.	.	4ee- 4g\	4gg 4b- 4e-\	.	4E-\	-cem	4B-\	-cem	4g\	-cem	4ee-\	-cem	4g/	.	4ee-\	.	8E-\L	.	8ee-\L	.	8gg|\L	.	2ryy
.	.	.	.	.	.	.	.	.	.	.	.	.	.	.	.	.	.	8E-\	.	(32ee-\LL	.	(32gg\LL	.	.
.	.	.	.	.	.	.	.	.	.	.	.	.	.	.	.	.	.	.	.	32dd\	.	32ff\	.	.
.	.	.	.	.	.	.	.	.	.	.	.	.	.	.	.	.	.	.	.	32ee-\	.	32gg\	.	.
.	.	.	.	.	.	.	.	.	.	.	.	.	.	.	.	.	.	.	.	32ff\JJJ)	.	32aa-\JJJ)	.	.
4r	.	.	4r	4r	.	4r	.	4r	.	4r	.	4r	.	8ee-/L	.	8gg\L	.	8B-\	.	8gg|\L	.	8bb-|\L	.	.
.	.	.	.	.	.	.	.	.	.	.	.	.	.	8b-/J	.	8ff\J	.	8BB-/J	.	8ff|\J	.	8aa-|\J	.	.
!	!	!	!	!	!	!	!	!	!	!	!	!	!	!	!	!LO:LB:g=original	!	!LO:LB:g=original	!	!LO:LB:g=original	!	!	!	!
=22	=22	=22	=22	=22	=22	=22	=22	=22	=22	=22	=22	=22	=22	=22	=22	=22	=22	=22	=22	=22	=22	=22	=22	=22
8r	.	.	8r	8r	.	8r	.	8r	.	8r	.	8r	.	8g/L	.	8ee-\L	.	8E-\L	.	8ee-\L	.	8gg|\L	.	2ryy
!LO:TX:t=P:problem=mixed beam	!	!	!	!	!	!	!	!	!	!	!	!	!	!	!	!	!	!	!	!	!	!	!	!
8E-\L	.	.	8ee-L 8g\	8ggL 8b- 8e-\	.	8E-\	no-	8B-\	pa-	8g\	no-	8ee-\	no-	8g/	.	8ee-\	.	8E-\	.	8ee-\J	.	8gg|\J	.	.
!	!	!	!	!	!	!LO:SIC:v:l:s=-bis	!	!	!	!	!	!LO:LB:g=original	!	!	!	!	!	!	!	!	!	!	!	!
8B-\	.	.	8dd 8f\	8ff 8b- 8d\	.	8B-\	-bi	8B-\	.	8f\	-bis	8dd\	-bis	8b-/	.	8ff\	.	8B-\	.	4dd\	.	4ff\	.	.
8BB-/J	.	.	8ddJ 8f\	8ffJ 8b- 8d\	.	8B-\	pa-	8B-\	.	8f\	pa-	8dd\	pa-	8b-/J	.	8ff\J	.	8B-\J	.	.	.	.	.	.
!	!	!	!	!	!	!	!	!	!	!LO:LB:g=original	!	!	!	!	!	!	!	!	!	!	!	!	!	!
=23	=23	=23	=23	=23	=23	=23	=23	=23	=23	=23	=23	=23	=23	=23	=23	=23	=23	=23	=23	=23	=23	=23	=23	=23
8E-\L	.	.	8ee-L 8g\	8ggL 8b- 8e-\	.	4E-\	-cem	4B-\	-cem	4g\	-cem	4ee-\	-cem	4g/	.	8ee-\L	.	8E-\L	.	4ee-\	.	4gg\	.	2ryy
8E-\	.	.	16ee-\L	16gg\L	.	.	.	.	.	.	.	.	.	.	.	8ee-\	.	8E-\	.	.	.	.	.	.
.	.	.	16gg\JJ	16bb-\JJ	.	.	.	.	.	.	.	.	.	.	.	.	.	.	.	.	.	.	.	.
8E-\	.	.	8ee-L 8g\	8ggL 8b- 8e-\	.	4r	.	4r	.	4r	.	4r	.	4g/	.	8ee-\	.	8E-\	.	4ee-\	.	4gg\	.	.
8E-\J	.	.	8ee-J 8g\	8ggJ 8b- 8e-\	.	.	.	.	.	.	.	.	.	.	.	8ee-\J	.	8E-\J	.	.	.	.	.	.
=24	=24	=24	=24	=24	=24	=24	=24	=24	=24	=24	=24	=24	=24	=24	=24	=24	=24	=24	=24	=24	=24	=24	=24	=24
4E-\	.	.	4ee- 4g\	4gg 4b- 4e-\	.	2r	.	2r	.	2r	.	2r	.	4g/	.	4ee-\	.	4E-\	.	4ee-\	.	4gg\	.	2ryy
4r	.	.	4r	4r	.	.	.	.	.	.	.	.	.	4r	.	4r	.	4r	.	4r	.	4r	.	.
==	==	==	==	==	==	==	==	==	==	==	==	==	==	==	==	==	==	==	==	==	==	==	==	==
*-	*-	*-	*-	*-	*-	*-	*-	*-	*-	*-	*-	*-	*-	*-	*-	*-	*-	*-	*-	*-	*-	*-	*-	*-
!!!system-decoration: [(g1)][(g2)][(g3)][(g4)]<s13>
!!!RDF**kern: < = below
!!!RDF**kern: | = vertical stroke
!!!ENC: Marta Chmielewska
!!!END: 2020-06-29
!!!ENC: Andrzej Kubiczek
!!!END: 2021-12-28
